X:2
T:Petit nuage
R:Jig
C:Jean Banwarth
Z:Jean Banwarth
D:Ceol "The last order" ref. EDMI 01
M:6/8
L:1/8
N:Copyright : Jean Banwarth
N:E-Mail : banwarth#club-internet.fr
N:Web "Banwarth on the ouaib : Irish guitar &amp;amp; bouzouki"
N:http://perso.club-internet.fr/banwarth/index.html
K:D
z3dcd|:"D"AFDDFA|"Em"BEEBcd|"Bm"ffffgf|"A"ecAAce|"D"fffagf|"C"eeegfe|"G"dddf
ed|1"A"ecAdcd:|2"A"ecAfec|:"Bm"dBBFBD|"Bm"B,DFBed|"A"cAA^GAE|"F#m"ceaAce|"Bm
"dBBFBD|"Bm"B,DF"A"Bed|"G"GBdgfg|1"A"ecAfec:|2"A"ecAdcd| \
